X:307
T: Shandinna (The)
T: Seanduine (An)
N: O'Farrell's Pocket Companion v.4 (Sky ed. p.136)
N: "Irish"
M: 6/8
L: 1/8
R: jig
Q: 320 % "quick time"
K: D
F/E/| DED AFD| FGF F2E| DED AFD| EFE E2F|
DED AGF| DFA d2e| fed cdB| ABG F2 :|
A| d3 def| ABA AGF| dcd ede| fdB B2A|
d/e/fe dAF| DFA d2e| fed cdB| ABG F2A|
ddd def| ABA AGF| dcd efg| fdB B2 f/g/|
afd ged| cBA d2e| fed cdB| ABG F2 ||
